packages/symbols/svgs/duotone/file-xmark-duotone.svg

<svg width="24" height="24" viewBox="0 0 24 24" fill="none" xmlns="http://www.w3.org/2000/svg">
<path opacity="0.5" fill-rule="evenodd" clip-rule="evenodd" d="M2 0H3H15H15.4142L15.7071 0.292893L21.7071 6.29289L22 6.58579V7V23V24H21H3H2V23V1V0ZM4 2V22H20V8H15C14.4477 8 14 7.55228 14 7V2H4Z" fill="black"/>
<path d="M12.0246 12.7676L14.6819 10.3595C15.2134 9.88401 16.0702 9.88145 16.6002 10.361C17.1302 10.8406 17.1302 11.617 16.6002 12.0963L13.9413 14.5008L16.6025 16.9032C17.1325 17.3828 17.1325 18.1592 16.6025 18.6385C16.0716 19.118 15.2136 19.1176 14.6836 18.6385L12.0246 16.234L9.36796 18.6405C8.83707 19.12 7.97912 19.1196 7.44908 18.6405C6.91905 18.1609 6.91905 17.3846 7.44908 16.9053L10.108 14.5008L7.39763 12.0947C6.8676 11.6152 6.86731 10.8388 7.39763 10.3595C7.92795 9.88017 8.78647 9.88017 9.31651 10.3595L12.0246 12.7676Z" fill="black"/>
</svg>

<svg width="24" height="24" viewBox="0 0 24 24" xmlns="http://www.w3.org/2000/svg"><path opacity=".5" fill-rule="evenodd" clip-rule="evenodd" d="M2 0h13.414l.293.293 6 6 .293.293V24H2V0Zm2 2v20h16V8h-5a1 1 0 0 1-1-1V2H4Z"/><path d="m12.025 12.768 2.657-2.409c.531-.475 1.388-.478 1.918.002s.53 1.256 0 1.735l-2.659 2.405 2.661 2.402c.53.48.53 1.256 0 1.736a1.46 1.46 0 0 1-1.918 0l-2.66-2.405-2.656 2.406a1.46 1.46 0 0 1-1.919 0 1.146 1.146 0 0 1 0-1.735l2.659-2.404-2.71-2.406a1.145 1.145 0 0 1 0-1.736 1.46 1.46 0 0 1 1.919 0l2.708 2.409Z"/></svg>
